X:1
T:Ahimè, ahimè dov'è'l bel viso
T:Jacques Arcadelt c.1500-1568
T:Ahimè, ahimè dov'è'l bel viso
T:This work is licensed under CC0: creativecommons.org/publicdomain/zero/1.0/
T:Transcribed from 1539 Gardano edition of Arcadelt's Il primo libro di madrigali a 4 Original note values halved
T:This work is licensed under CC0: creativecommons.org/publicdomain/zero/1.0/
T:This work is licensed under CC0: creativecommons.org/publicdomain/zero/1.0/
T:This work is licensed under CC0: creativecommons.org/publicdomain/zero/1.0/
T:This work is licensed under CC0: creativecommons.org/publicdomain/zero/1.0/
T:This work is licensed under CC0: creativecommons.org/publicdomain/zero/1.0/
C:Jacques Arcadelt
C:c.1500-1568
Z:Anonymous
Z:This work is licensed under CC0: creativecommons.org/publicdomain/zero/1.0/
%%score [ 1 2 3 4 ]
L:1/8
M:4/4
K:C
V:1 treble nm="Piano" snm="Pno."
V:2 treble transpose=-12 nm="Piano" snm="Pno."
V:3 treble transpose=-12 nm="Piano" snm="Pno."
V:4 treble nm="Piano" snm="Pno."
V:1
"^Cantus" x8 |"^Instrument change" G8 | E8 | F8 | D6 D2 | E6 C2 | E4 D4 | z2 D2 D2 E2 | F4 E2 E2 | %9
w: |Ahi-|mè,|ahi-|mè dov'|è'l bel|vi- so,|in cui so-|le- a te-|
 G2 G2 F2 E2 | D4 E4 | z2 G2 G2 G2 | E2 F2 G2 G2 | G4 A4 | B2 c4 B2 | A4 B4 | G4 G2 G2 | %17
w: ner suo ni- do'a-|mo- re,|e do- ve|ri- post' e- ra|o- gni|mia spe- *|* me?|Dov' è'l bel|
 A4 D2 D2- | D2 E2 F4 | E2 G2 G2 G2 | A3 G F2 E2 | D2 D2 z2 E2 | E2 E2 E2 E2 | F4 D2 D2 | %24
w: vi- so, il|_ bel vi-|so ch'or- na- v'il|mon- do di splen-|do- re, il|mio ca- ro the-|so- ro, il|
 F2 F2 E4 | D4 z2 D2- | D2 E2 F2 G2- | G2 G2 F2 E2- | E2 D2 C2 B,2- | B,2 A,G, A,2 B,2 | %30
w: som- mo be-|ne? chi|_ me'l ri- tie-|* ne, chi me'l|_ _ ce- *||
 B,4 z2 E2- | E2 E2 F4 | D2 D2 F2 F2 | E8 | D4 z2 D2 | E2 F2 G2 A2- | AG G4"^#" ^F2 | G8 | z8 | %39
w: la O|_ for- tu-|na o mor- t'in-|gor-|da, cie-|ca spie- ta- t'e|_ _ sor- *|da,||
 G4 F2 E2 | D2 D2 E2 E2 | C2 D2 E4 | D8 | z4 G4 | E2 E2 F4 | D6 D2 | D2 D2 E4- | E2 C2 E4 | D4 z4 | %49
w: chi m'ha tol-|to'il mio cor, chi|me l'a- scon-|de?|Dov'|è'l ben mi-|o, che|più non mi|_ ri- spon-|de,|
 G4 E2 E2 | F4 D4- | D2 D2 D2 D2 | E6 C2 | E4 D4- | D8 |] %55
w: dov' èl ben|mi- o,|_ che più non|mi ri-|spon- de?|_|
V:2
"^Alto" x8 |"^Instrument change" D,8 | C,8 | C,8 | _B,,6"^b" B,,2 | A,,2 G,,4"^#" ^F,,2 | G,,8 | %7
w: |Ahi-|mè,|ahi-|mè, dov'|è'l bel vi-|so,|
 B,,3 C, D,2 C,2- | C,2 B,,2 C,2 C,2 | E,2 E,2 D,2 C,2- | C,2 B,,2 C,4 | z2 C,2 C,2 B,,2 | %12
w: in _ cui so-|* le- a te-|ner suo ni- do'a-|* mo- re,|e do- ve|
 C,2 C,2 D,2 E,2 | D,2 D,2 E,3 F, | G,2 A,4 G,2- | G,2"^#" ^F,2 G,4 | E,4 E,2 E,2 | %17
w: ri- post' e- *|ra o- gni _|mi- a spe-|* * me?|Dov' è'l bel|
 C,4 B,,2 B,,2- | B,,A,, G,,4 F,,2 | G,,2 E,2 D,2 E,2 | F,3 E, D,2 C,2 | B,,2 B,,2 z2 C,2 | %22
w: vi- so, il|_ bel vi- *|so ch'or- na- v'il|mon- do di splen-|do- re, il|
 C,2 C,2 C,2 C,2 | D,4 _B,,2"^b" B,,2 | D,2 D,2 C,4 | B,,8 | z2 B,,2 C,2 D,2 | E,3 D, C,4 | %28
w: mio ca- ro the-|so- ro, il|som- mo be-|ne?|chi me'l ri-|tie- * *|
 B,,2 A,,4 G,,2- | G,,2"^#" ^F,,E,,"^#" F,,4 | G,,4 z2 C,2- | C,2 C,2 D,4 | %32
w: ne, chi me'l|_ _ _ ce-|la O|_ for- tu-|
 _B,,2"^b" B,,2 D,2 D,2 | C,8 | B,,2 B,,2 C,2 B,,2 | A,,2 A,,2 z2 A,,2 | B,,2 B,,2 C,2 C,2 | %37
w: na o mor- t'in-|gor-|da, cie- ca spie-|ta- ta cie-|ca spie- ta- t'e|
 D,4 D,2 B,,2 | A,,2 G,,2 G,,2 F,,2 | G,,2 E,2 D,2 C,2 | C,2 B,,2 C,2 C,2 | E,2 D,2 C,4 | B,,8 | %43
w: sor- da, chi|m'ha tol- to'il mio|cor, chi m'ha tol-|to'il mio cor, chi|me l'a- scon-|de?|
 D,8 | C,2 C,2 C,4 | _B,,6"^b" B,,2 |"^b" _B,,2"^b" B,,2 A,,2 G,,2 | G,,2"^#" ^F,,2 G,,4- | %48
w: Dov'|è'l ben mi-|o, che|più non mi ri-|spon- * de,|
 G,,4 z4 | D,4 C,2 C,2 | C,4 _B,,4- | B,,2"^b" _B,,2"^b" B,,2"^b" B,,2 | A,,2 G,,2 G,,2"^#" ^F,,2 | %53
w: _|dov' èl ben|mi- o,|_ che più non|mi ri- spon- *|
 G,,8- | G,,8 |] %55
w: de?|_|
V:3
"^Tenor" x8 |"^Instrument change" B,,8 | G,,8 | A,,8 | F,,6 F,,2 | C,2 C,2 C,4- | C,4 B,,4 | %7
w: |Ahi-|mè|ahi-|mè dov'|è'l bel vi-|* so,|
 z2 G,,2 A,,2 G,,2- | G,,2 F,,2 G,,2 G,,2 | G,,3 A,, _B,,2 C,2 | G,,2 G,,2 z2 C,2 | %11
w: in cui so-|* le- a te-|ner suo ni- do'a-|mo- re, e|
 E,2 E,2 D,2 D,2 | C,4 B,,2 C,2 | G,,4 z2 C,2 | D,2 F,2- F,E,D,C, | D,4 D,4 | z2 G,,2 E,,2 G,,2- | %17
w: do- ve ri- post'|e- * *|ra o-|gni mia _ _ _ _|spe- me?|Dov' è'l bel|
 G,,2 F,,2 G,,A,,B,,C, | D,2 C,4 B,,2 | C,2 C,2 B,,2 C,2 | F,,2 A,,2 _B,,2 C,2 | %21
w: * vi- so, _ _ _|il bel vi-|so ch'or- na- v'il|mon- do di splen-|
 G,,2 G,,2 z2 G,,2 | G,,2 G,,2 G,,2 G,,2 | _B,,4 F,,2 F,,2 |"^b" _B,,2"^b" B,,2 G,,4 | G,,4 z4 | %26
w: do- re, il|mio ca- ro the-|so- ro, il|som- mo be-|ne?|
 G,,4 A,,2 B,,2 | C,3 B,, A,,4 | G,,2 F,,4 G,,2 | D,,8 | G,,4 z2 G,,2- | G,,2 G,,2 _B,,4 | %32
w: chi me'l ri-|tie- * *|ne, chi me'l|ce-|la O|_ for- tu-|
 F,,4"^b" _B,,2"^b" B,,2 | G,,4 G,,4 | z2 G,,2 A,,2 B,,2 | C,2 D,2 C,3 D, | E,2 D,2- D,C, C,2- | %37
w: na'o mor- t'in-|gor- da|cie- ca spie-|ta- t'e sor- *||
 C,2 B,,A,, B,,2 E,2 | D,2 C,2 C,2 B,,2 | C,2 C,,2 D,,2 E,,2 | F,,2 G,,2 G,,2 G,,2 | %41
w: * * * da, chi|m'ha tol- to'il mio|cor, chi m'ha tol-|to'il mio cor, chi|
 G,,2 G,,2 G,,4 | G,,8 | B,,8 | G,,2 G,,2 A,,4 | F,,6 F,,2 | F,,2 F,,2 C,2 C,2 | C,4 B,,4- | %48
w: me l'a- scon-|de?|Dov'|è'l ben mi-|o, che|più non mi ri-|spon- de,|
 B,,4 B,,4- | B,,4 G,,2 G,,2 | A,,4 F,,4- | F,,2 F,,2 F,,2 F,,2 | C,2 C,2 C,4- | C,2 B,,A,, B,,4- | %54
w: _ dov'|_ èl ben|mi- o,|_ che più non|mi ri- spon-|* * * de?|
 B,,8 |] %55
w: _|
V:4
"^Bass" x8 |"^Instrument change" G,8 | C,8 | F,8 | _B,,6"^b" B,,2 | C,2 C,2 A,,4 | G,,8 | %7
w: |Ahi-|mè,|ahi-|mè dov'|è'l bel vi-|so,|
 G,4 F,2 E,2 | D,4 C,4- | C,4 z4 | z4 C,4 | C,2 C,2 G,2 G,2 | A,4 G,2 C2 | C2 B,2 A,4 | %14
w: in cui so-|le- a|_|e|do- ve ri- post'|e- ra o-|gni mia spe-|
 G,2 F,2 F,2 G,2 | D,4 G,4 | C,4 C,2 C,2 | A,,4 G,,3 A,, | B,,2 C,2 D,4 | C,4 z4 | z8 | z4 C,4 | %22
w: ne,- o- gni mia|spe- me?|Dov' è'l bel|vi- so, dov'|è'l bel vi-|so||il|
 C,2 C,2 C,2 C,2 | _B,,4"^b" B,,4 |"^b" _B,,2"^b" B,,2 C,4 | G,,8 | z8 | z8 | z8 | z8 | %30
w: mio ca- ro the-|so- ro'il|som- mo be-|ne?|||||
 z4 z2 C,2- | C,2 C,2 _B,,4 |"^b" _B,,4"^b" B,,2"^b" B,,2 | C,8 | G,,4 z4 | z2 D,2 E,2 F,2 | %36
w: O|_ for- tu-|na'o mor- t'in-|gor-|da|cie- ca spie-|
 G,2 G,2 A,4 | G,4 G,4 | F,2 E,2 D,2 D,2 | C,4 z4 | z2 G,,2 C,4- | C,2 B,,2 C,4 | G,,8 | G,8 | %44
w: ta- t'e sor-|da chi|m'ha tol- to'il mio|cor|chi me|_ l'as- con-|de?|Dov'|
 C,2 C,2 F,4 | _B,,6"^b" B,,2 |"^b" _B,,2"^b" B,,2 C,2 C,2 | A,,4 G,,4- | G,,4 G,4- | G,4 C,2 C,2 | %50
w: è'l ben mi-|o, che|più non mi ri-|spon- de,|_ dov'|_ èl ben|
 F,4 _B,,4- | B,,2"^b" _B,,2"^b" B,,2"^b" B,,2 | C,2 C,2 A,,4 | G,,8- | G,,8 |] %55
w: mi- o,|_ che più non|mi ri- spon-|de?|_|

